public/algorithms/searching-algorithms/binary-search/middle-formula.svg

<svg width="425" height="235" viewBox="0 0 425 235" fill="none" xmlns="http://www.w3.org/2000/svg">
<path d="M15.2557 34.7273H18.6193L26.5284 54.0455H26.8011L34.7102 34.7273H38.0739V58H35.4375V40.3182H35.2102L27.9375 58H25.392L18.1193 40.3182H17.892V58H15.2557V34.7273ZM43.3608 58V40.5455H46.0426V58H43.3608ZM44.7244 37.6364C44.2017 37.6364 43.7509 37.4583 43.3722 37.1023C43.0009 36.7462 42.8153 36.3182 42.8153 35.8182C42.8153 35.3182 43.0009 34.8902 43.3722 34.5341C43.7509 34.178 44.2017 34 44.7244 34C45.2472 34 45.6941 34.178 46.0653 34.5341C46.4441 34.8902 46.6335 35.3182 46.6335 35.8182C46.6335 36.3182 46.4441 36.7462 46.0653 37.1023C45.6941 37.4583 45.2472 37.6364 44.7244 37.6364ZM57.5455 58.3636C56.0909 58.3636 54.8068 57.9962 53.6932 57.2614C52.5795 56.5189 51.7083 55.4735 51.0795 54.125C50.4508 52.7689 50.1364 51.1667 50.1364 49.3182C50.1364 47.4848 50.4508 45.8939 51.0795 44.5455C51.7083 43.197 52.5833 42.1553 53.7045 41.4205C54.8258 40.6856 56.1212 40.3182 57.5909 40.3182C58.7273 40.3182 59.625 40.5076 60.2841 40.8864C60.9508 41.2576 61.4583 41.6818 61.8068 42.1591C62.1629 42.6288 62.4394 43.0152 62.6364 43.3182H62.8636V34.7273H65.5455V58H62.9545V55.3182H62.6364C62.4394 55.6364 62.1591 56.0379 61.7955 56.5227C61.4318 57 60.9129 57.428 60.2386 57.8068C59.5644 58.178 58.6667 58.3636 57.5455 58.3636ZM57.9091 55.9545C58.9848 55.9545 59.8939 55.6742 60.6364 55.1136C61.3788 54.5455 61.9432 53.7614 62.3295 52.7614C62.7159 51.7538 62.9091 50.5909 62.9091 49.2727C62.9091 47.9697 62.7197 46.8295 62.3409 45.8523C61.9621 44.8674 61.4015 44.1023 60.6591 43.5568C59.9167 43.0038 59 42.7273 57.9091 42.7273C56.7727 42.7273 55.8258 43.0189 55.0682 43.6023C54.3182 44.178 53.7538 44.9621 53.375 45.9545C53.0038 46.9394 52.8182 48.0455 52.8182 49.2727C52.8182 50.5152 53.0076 51.6439 53.3864 52.6591C53.7727 53.6667 54.3409 54.4697 55.0909 55.0682C55.8485 55.6591 56.7879 55.9545 57.9091 55.9545ZM77.4205 58.3636C75.9659 58.3636 74.6818 57.9962 73.5682 57.2614C72.4545 56.5189 71.5833 55.4735 70.9545 54.125C70.3258 52.7689 70.0114 51.1667 70.0114 49.3182C70.0114 47.4848 70.3258 45.8939 70.9545 44.5455C71.5833 43.197 72.4583 42.1553 73.5795 41.4205C74.7008 40.6856 75.9962 40.3182 77.4659 40.3182C78.6023 40.3182 79.5 40.5076 80.1591 40.8864C80.8258 41.2576 81.3333 41.6818 81.6818 42.1591C82.0379 42.6288 82.3144 43.0152 82.5114 43.3182H82.7386V34.7273H85.4205V58H82.8295V55.3182H82.5114C82.3144 55.6364 82.0341 56.0379 81.6705 56.5227C81.3068 57 80.7879 57.428 80.1136 57.8068C79.4394 58.178 78.5417 58.3636 77.4205 58.3636ZM77.7841 55.9545C78.8598 55.9545 79.7689 55.6742 80.5114 55.1136C81.2538 54.5455 81.8182 53.7614 82.2045 52.7614C82.5909 51.7538 82.7841 50.5909 82.7841 49.2727C82.7841 47.9697 82.5947 46.8295 82.2159 45.8523C81.8371 44.8674 81.2765 44.1023 80.5341 43.5568C79.7917 43.0038 78.875 42.7273 77.7841 42.7273C76.6477 42.7273 75.7008 43.0189 74.9432 43.6023C74.1932 44.178 73.6288 44.9621 73.25 45.9545C72.8788 46.9394 72.6932 48.0455 72.6932 49.2727C72.6932 50.5152 72.8826 51.6439 73.2614 52.6591C73.6477 53.6667 74.2159 54.4697 74.9659 55.0682C75.7235 55.6591 76.6629 55.9545 77.7841 55.9545ZM93.3864 34.7273V58H90.7045V34.7273H93.3864ZM105.616 58.3636C103.935 58.3636 102.484 57.9924 101.264 57.25C100.052 56.5 99.1165 55.4545 98.4574 54.1136C97.8059 52.7652 97.4801 51.197 97.4801 49.4091C97.4801 47.6212 97.8059 46.0455 98.4574 44.6818C99.1165 43.3106 100.033 42.2424 101.207 41.4773C102.389 40.7045 103.768 40.3182 105.344 40.3182C106.253 40.3182 107.151 40.4697 108.037 40.7727C108.923 41.0758 109.73 41.5682 110.457 42.25C111.185 42.9242 111.764 43.8182 112.196 44.9318C112.628 46.0455 112.844 47.4167 112.844 49.0455V50.1818H99.3892V47.8636H110.116C110.116 46.8788 109.92 46 109.526 45.2273C109.139 44.4545 108.586 43.8447 107.866 43.3977C107.154 42.9508 106.313 42.7273 105.344 42.7273C104.276 42.7273 103.351 42.9924 102.571 43.5227C101.798 44.0455 101.204 44.7273 100.787 45.5682C100.37 46.4091 100.162 47.3106 100.162 48.2727V49.8182C100.162 51.1364 100.389 52.2538 100.844 53.1705C101.306 54.0795 101.946 54.7727 102.764 55.25C103.582 55.7197 104.533 55.9545 105.616 55.9545C106.321 55.9545 106.957 55.8561 107.526 55.6591C108.101 55.4545 108.598 55.1515 109.014 54.75C109.431 54.3409 109.753 53.8333 109.98 53.2273L112.571 53.9545C112.298 54.8333 111.84 55.6061 111.196 56.2727C110.552 56.9318 109.757 57.447 108.81 57.8182C107.863 58.1818 106.798 58.3636 105.616 58.3636ZM127.014 46.7727V44.3182H141.014V46.7727H127.014ZM127.014 53.5V51.0455H141.014V53.5H127.014Z" fill="white"/>
<path d="M173.178 31V7.72727H175.996V18.0909H188.405V7.72727H191.223V31H188.405V20.5909H175.996V31H173.178ZM196.501 31V13.5455H199.183V31H196.501ZM197.865 10.6364C197.342 10.6364 196.892 10.4583 196.513 10.1023C196.142 9.74621 195.956 9.31818 195.956 8.81818C195.956 8.31818 196.142 7.89015 196.513 7.53409C196.892 7.17803 197.342 7 197.865 7C198.388 7 198.835 7.17803 199.206 7.53409C199.585 7.89015 199.774 8.31818 199.774 8.81818C199.774 9.31818 199.585 9.74621 199.206 10.1023C198.835 10.4583 198.388 10.6364 197.865 10.6364ZM211.141 37.9091C209.845 37.9091 208.732 37.7424 207.8 37.4091C206.868 37.0833 206.091 36.6515 205.47 36.1136C204.857 35.5833 204.368 35.0152 204.004 34.4091L206.141 32.9091C206.383 33.2273 206.69 33.5909 207.061 34C207.432 34.4167 207.94 34.7765 208.584 35.0795C209.235 35.3902 210.088 35.5455 211.141 35.5455C212.55 35.5455 213.713 35.2045 214.629 34.5227C215.546 33.8409 216.004 32.7727 216.004 31.3182V27.7727H215.777C215.58 28.0909 215.3 28.4848 214.936 28.9545C214.58 29.4167 214.065 29.8295 213.391 30.1932C212.724 30.5492 211.822 30.7273 210.686 30.7273C209.277 30.7273 208.012 30.3939 206.891 29.7273C205.777 29.0606 204.894 28.0909 204.243 26.8182C203.599 25.5455 203.277 24 203.277 22.1818C203.277 20.3939 203.591 18.8371 204.22 17.5114C204.849 16.178 205.724 15.1477 206.845 14.4205C207.966 13.6856 209.262 13.3182 210.732 13.3182C211.868 13.3182 212.769 13.5076 213.436 13.8864C214.11 14.2576 214.625 14.6818 214.982 15.1591C215.345 15.6288 215.625 16.0152 215.822 16.3182H216.095V13.5455H218.686V31.5C218.686 33 218.345 34.2197 217.663 35.1591C216.989 36.1061 216.08 36.7992 214.936 37.2386C213.8 37.6856 212.535 37.9091 211.141 37.9091ZM211.05 28.3182C212.125 28.3182 213.035 28.072 213.777 27.5795C214.519 27.0871 215.084 26.3788 215.47 25.4545C215.857 24.5303 216.05 23.4242 216.05 22.1364C216.05 20.8788 215.86 19.7689 215.482 18.8068C215.103 17.8447 214.542 17.0909 213.8 16.5455C213.057 16 212.141 15.7273 211.05 15.7273C209.913 15.7273 208.966 16.0152 208.209 16.5909C207.459 17.1667 206.894 17.9394 206.516 18.9091C206.144 19.8788 205.959 20.9545 205.959 22.1364C205.959 23.3485 206.148 24.4205 206.527 25.3523C206.913 26.2765 207.482 27.0038 208.232 27.5341C208.989 28.0568 209.929 28.3182 211.05 28.3182ZM226.277 20.5V31H223.595V7.72727H226.277V16.2727H226.504C226.913 15.3712 227.527 14.6553 228.345 14.125C229.171 13.5871 230.269 13.3182 231.641 13.3182C232.83 13.3182 233.872 13.5568 234.766 14.0341C235.66 14.5038 236.353 15.2273 236.845 16.2045C237.345 17.1742 237.595 18.4091 237.595 19.9091V31H234.913V20.0909C234.913 18.7045 234.554 17.6326 233.834 16.875C233.122 16.1098 232.133 15.7273 230.868 15.7273C229.989 15.7273 229.201 15.9129 228.504 16.2841C227.815 16.6553 227.269 17.197 226.868 17.9091C226.474 18.6212 226.277 19.4848 226.277 20.5ZM258.32 26.9091V11.9091H260.865V26.9091H258.32ZM252.092 20.6818V18.1364H267.092V20.6818H252.092ZM281.959 31V7.72727H284.777V28.5H295.595V31H281.959ZM306.686 31.3636C305.11 31.3636 303.728 30.9886 302.538 30.2386C301.357 29.4886 300.432 28.4394 299.766 27.0909C299.107 25.7424 298.777 24.1667 298.777 22.3636C298.777 20.5455 299.107 18.9583 299.766 17.6023C300.432 16.2462 301.357 15.1932 302.538 14.4432C303.728 13.6932 305.11 13.3182 306.686 13.3182C308.262 13.3182 309.641 13.6932 310.822 14.4432C312.012 15.1932 312.936 16.2462 313.595 17.6023C314.262 18.9583 314.595 20.5455 314.595 22.3636C314.595 24.1667 314.262 25.7424 313.595 27.0909C312.936 28.4394 312.012 29.4886 310.822 30.2386C309.641 30.9886 308.262 31.3636 306.686 31.3636ZM306.686 28.9545C307.883 28.9545 308.868 28.6477 309.641 28.0341C310.413 27.4205 310.985 26.6136 311.357 25.6136C311.728 24.6136 311.913 23.5303 311.913 22.3636C311.913 21.197 311.728 20.1098 311.357 19.1023C310.985 18.0947 310.413 17.2803 309.641 16.6591C308.868 16.0379 307.883 15.7273 306.686 15.7273C305.489 15.7273 304.504 16.0379 303.732 16.6591C302.959 17.2803 302.387 18.0947 302.016 19.1023C301.644 20.1098 301.459 21.197 301.459 22.3636C301.459 23.5303 301.644 24.6136 302.016 25.6136C302.387 26.6136 302.959 27.4205 303.732 28.0341C304.504 28.6477 305.489 28.9545 306.686 28.9545ZM322.05 31L316.732 13.5455H319.55L323.322 26.9091H323.504L327.232 13.5455H330.095L333.777 26.8636H333.959L337.732 13.5455H340.55L335.232 31H332.595L328.777 17.5909H328.504L324.686 31H322.05Z" fill="white"/>
<path d="M248.722 86V83.9545L256.403 75.5455C257.305 74.5606 258.047 73.7045 258.631 72.9773C259.214 72.2424 259.646 71.553 259.926 70.9091C260.214 70.2576 260.358 69.5758 260.358 68.8636C260.358 68.0455 260.161 67.3371 259.767 66.7386C259.381 66.1402 258.85 65.678 258.176 65.3523C257.502 65.0265 256.744 64.8636 255.903 64.8636C255.009 64.8636 254.229 65.0492 253.562 65.4205C252.903 65.7841 252.392 66.2955 252.028 66.9545C251.672 67.6136 251.494 68.3864 251.494 69.2727H248.812C248.812 67.9091 249.127 66.7121 249.756 65.6818C250.384 64.6515 251.241 63.8485 252.324 63.2727C253.415 62.697 254.638 62.4091 255.994 62.4091C257.358 62.4091 258.566 62.697 259.619 63.2727C260.672 63.8485 261.498 64.625 262.097 65.6023C262.695 66.5795 262.994 67.6667 262.994 68.8636C262.994 69.7197 262.839 70.5568 262.528 71.375C262.225 72.1856 261.695 73.0909 260.938 74.0909C260.188 75.0833 259.146 76.2955 257.812 77.7273L252.585 83.3182V83.5H263.403V86H248.722Z" fill="white"/>
<line x1="166" y1="46.5" x2="346" y2="46.5" stroke="white"/>
<path d="M15.2557 175.727H18.6193L26.5284 195.045H26.8011L34.7102 175.727H38.0739V199H35.4375V181.318H35.2102L27.9375 199H25.392L18.1193 181.318H17.892V199H15.2557V175.727ZM43.3608 199V181.545H46.0426V199H43.3608ZM44.7244 178.636C44.2017 178.636 43.7509 178.458 43.3722 178.102C43.0009 177.746 42.8153 177.318 42.8153 176.818C42.8153 176.318 43.0009 175.89 43.3722 175.534C43.7509 175.178 44.2017 175 44.7244 175C45.2472 175 45.6941 175.178 46.0653 175.534C46.4441 175.89 46.6335 176.318 46.6335 176.818C46.6335 177.318 46.4441 177.746 46.0653 178.102C45.6941 178.458 45.2472 178.636 44.7244 178.636ZM57.5455 199.364C56.0909 199.364 54.8068 198.996 53.6932 198.261C52.5795 197.519 51.7083 196.473 51.0795 195.125C50.4508 193.769 50.1364 192.167 50.1364 190.318C50.1364 188.485 50.4508 186.894 51.0795 185.545C51.7083 184.197 52.5833 183.155 53.7045 182.42C54.8258 181.686 56.1212 181.318 57.5909 181.318C58.7273 181.318 59.625 181.508 60.2841 181.886C60.9508 182.258 61.4583 182.682 61.8068 183.159C62.1629 183.629 62.4394 184.015 62.6364 184.318H62.8636V175.727H65.5455V199H62.9545V196.318H62.6364C62.4394 196.636 62.1591 197.038 61.7955 197.523C61.4318 198 60.9129 198.428 60.2386 198.807C59.5644 199.178 58.6667 199.364 57.5455 199.364ZM57.9091 196.955C58.9848 196.955 59.8939 196.674 60.6364 196.114C61.3788 195.545 61.9432 194.761 62.3295 193.761C62.7159 192.754 62.9091 191.591 62.9091 190.273C62.9091 188.97 62.7197 187.83 62.3409 186.852C61.9621 185.867 61.4015 185.102 60.6591 184.557C59.9167 184.004 59 183.727 57.9091 183.727C56.7727 183.727 55.8258 184.019 55.0682 184.602C54.3182 185.178 53.7538 185.962 53.375 186.955C53.0038 187.939 52.8182 189.045 52.8182 190.273C52.8182 191.515 53.0076 192.644 53.3864 193.659C53.7727 194.667 54.3409 195.47 55.0909 196.068C55.8485 196.659 56.7879 196.955 57.9091 196.955ZM77.4205 199.364C75.9659 199.364 74.6818 198.996 73.5682 198.261C72.4545 197.519 71.5833 196.473 70.9545 195.125C70.3258 193.769 70.0114 192.167 70.0114 190.318C70.0114 188.485 70.3258 186.894 70.9545 185.545C71.5833 184.197 72.4583 183.155 73.5795 182.42C74.7008 181.686 75.9962 181.318 77.4659 181.318C78.6023 181.318 79.5 181.508 80.1591 181.886C80.8258 182.258 81.3333 182.682 81.6818 183.159C82.0379 183.629 82.3144 184.015 82.5114 184.318H82.7386V175.727H85.4205V199H82.8295V196.318H82.5114C82.3144 196.636 82.0341 197.038 81.6705 197.523C81.3068 198 80.7879 198.428 80.1136 198.807C79.4394 199.178 78.5417 199.364 77.4205 199.364ZM77.7841 196.955C78.8598 196.955 79.7689 196.674 80.5114 196.114C81.2538 195.545 81.8182 194.761 82.2045 193.761C82.5909 192.754 82.7841 191.591 82.7841 190.273C82.7841 188.97 82.5947 187.83 82.2159 186.852C81.8371 185.867 81.2765 185.102 80.5341 184.557C79.7917 184.004 78.875 183.727 77.7841 183.727C76.6477 183.727 75.7008 184.019 74.9432 184.602C74.1932 185.178 73.6288 185.962 73.25 186.955C72.8788 187.939 72.6932 189.045 72.6932 190.273C72.6932 191.515 72.8826 192.644 73.2614 193.659C73.6477 194.667 74.2159 195.47 74.9659 196.068C75.7235 196.659 76.6629 196.955 77.7841 196.955ZM93.3864 175.727V199H90.7045V175.727H93.3864ZM105.616 199.364C103.935 199.364 102.484 198.992 101.264 198.25C100.052 197.5 99.1165 196.455 98.4574 195.114C97.8059 193.765 97.4801 192.197 97.4801 190.409C97.4801 188.621 97.8059 187.045 98.4574 185.682C99.1165 184.311 100.033 183.242 101.207 182.477C102.389 181.705 103.768 181.318 105.344 181.318C106.253 181.318 107.151 181.47 108.037 181.773C108.923 182.076 109.73 182.568 110.457 183.25C111.185 183.924 111.764 184.818 112.196 185.932C112.628 187.045 112.844 188.417 112.844 190.045V191.182H99.3892V188.864H110.116C110.116 187.879 109.92 187 109.526 186.227C109.139 185.455 108.586 184.845 107.866 184.398C107.154 183.951 106.313 183.727 105.344 183.727C104.276 183.727 103.351 183.992 102.571 184.523C101.798 185.045 101.204 185.727 100.787 186.568C100.37 187.409 100.162 188.311 100.162 189.273V190.818C100.162 192.136 100.389 193.254 100.844 194.17C101.306 195.08 101.946 195.773 102.764 196.25C103.582 196.72 104.533 196.955 105.616 196.955C106.321 196.955 106.957 196.856 107.526 196.659C108.101 196.455 108.598 196.152 109.014 195.75C109.431 195.341 109.753 194.833 109.98 194.227L112.571 194.955C112.298 195.833 111.84 196.606 111.196 197.273C110.552 197.932 109.757 198.447 108.81 198.818C107.863 199.182 106.798 199.364 105.616 199.364ZM127.014 187.773V185.318H141.014V187.773H127.014ZM127.014 194.5V192.045H141.014V194.5H127.014Z" fill="white"/>
<path d="M223.011 172L233.42 151.409V151.227H221.42V148.727H236.33V151.364L225.966 172H223.011ZM256.429 167.909V152.909H258.974V167.909H256.429ZM250.202 161.682V159.136H265.202V161.682H250.202ZM287.841 148.727V172H285.023V151.682H284.886L279.205 155.455V152.591L285.023 148.727H287.841Z" fill="white"/>
<path d="M248.722 227V224.955L256.403 216.545C257.305 215.561 258.047 214.705 258.631 213.977C259.214 213.242 259.646 212.553 259.926 211.909C260.214 211.258 260.358 210.576 260.358 209.864C260.358 209.045 260.161 208.337 259.767 207.739C259.381 207.14 258.85 206.678 258.176 206.352C257.502 206.027 256.744 205.864 255.903 205.864C255.009 205.864 254.229 206.049 253.562 206.42C252.903 206.784 252.392 207.295 252.028 207.955C251.672 208.614 251.494 209.386 251.494 210.273H248.812C248.812 208.909 249.127 207.712 249.756 206.682C250.384 205.652 251.241 204.848 252.324 204.273C253.415 203.697 254.638 203.409 255.994 203.409C257.358 203.409 258.566 203.697 259.619 204.273C260.672 204.848 261.498 205.625 262.097 206.602C262.695 207.58 262.994 208.667 262.994 209.864C262.994 210.72 262.839 211.557 262.528 212.375C262.225 213.186 261.695 214.091 260.938 215.091C260.188 216.083 259.146 217.295 257.812 218.727L252.585 224.318V224.5H263.403V227H248.722Z" fill="white"/>
<line x1="166" y1="187.5" x2="346" y2="187.5" stroke="white"/>
<path d="M368.733 186.227V183.773H382.733V186.227H368.733ZM368.733 192.955V190.5H382.733V192.955H368.733ZM406.145 195.227V192.909L416.372 176.727H418.054V180.318H416.918L409.19 192.545V192.727H422.963V195.227H406.145ZM417.099 200V194.523V193.443V176.727H419.781V200H417.099Z" fill="white"/>
</svg>

<svg xmlns="http://www.w3.org/2000/svg" width="425" height="235" fill="none" viewBox="0 0 425 235"><path fill="#fff" d="M15.256 34.727h3.363l7.91 19.319h.272l7.91-19.319h3.363V58h-2.636V40.318h-.228L27.937 58h-2.545l-7.273-17.682h-.227V58h-2.636zM43.36 58V40.545h2.682V58zm1.363-20.364q-.783 0-1.352-.534a1.72 1.72 0 0 1-.557-1.284q0-.75.557-1.284.569-.534 1.352-.534.785 0 1.341.534.57.534.569 1.284 0 .75-.569 1.284a1.87 1.87 0 0 1-1.34.534m12.822 20.728q-2.183 0-3.853-1.103-1.67-1.113-2.613-3.136-.945-2.034-.944-4.807 0-2.75.944-4.773.942-2.022 2.625-3.125 1.68-1.102 3.886-1.102 1.704 0 2.693.568 1 .558 1.523 1.273.533.705.83 1.16h.227v-8.592h2.682V58h-2.592v-2.682h-.318q-.296.477-.84 1.205-.546.715-1.557 1.284-1.012.557-2.693.557m.363-2.41q1.614 0 2.727-.84 1.114-.853 1.694-2.353.58-1.51.58-3.488 0-1.954-.57-3.42-.568-1.478-1.68-2.296-1.115-.83-2.75-.83-1.705 0-2.842.875-1.125.864-1.693 2.353-.557 1.476-.557 3.318 0 1.862.568 3.386.58 1.511 1.705 2.41 1.137.886 2.818.886m19.512 2.41q-2.183 0-3.853-1.103-1.67-1.113-2.614-3.136-.943-2.034-.943-4.807 0-2.75.944-4.773.942-2.022 2.624-3.125 1.683-1.102 3.887-1.102 1.704 0 2.693.568 1 .558 1.523 1.273.533.705.83 1.16h.227v-8.592h2.682V58h-2.592v-2.682h-.318q-.296.477-.84 1.205-.546.715-1.557 1.284-1.012.557-2.693.557m.363-2.41q1.614 0 2.727-.84 1.114-.853 1.694-2.353.58-1.51.58-3.488 0-1.954-.57-3.42-.568-1.478-1.68-2.296-1.115-.83-2.75-.83-1.705 0-2.842.875-1.125.864-1.693 2.353-.557 1.476-.557 3.318 0 1.862.568 3.386.58 1.511 1.705 2.41 1.137.886 2.818.886m15.602-21.227V58h-2.681V34.727zm12.23 23.637q-2.522 0-4.352-1.114-1.818-1.125-2.807-3.136-.977-2.023-.977-4.705t.977-4.727q.99-2.057 2.75-3.205 1.773-1.158 4.137-1.159 1.364 0 2.693.455a6.7 6.7 0 0 1 2.42 1.477q1.091 1.011 1.739 2.682.648 1.67.648 4.113v1.137H99.389v-2.318h10.727q0-1.477-.59-2.637a4.46 4.46 0 0 0-1.66-1.83q-1.068-.67-2.522-.67-1.602 0-2.773.796a5.23 5.23 0 0 0-1.784 2.045 6 6 0 0 0-.625 2.705v1.545q0 1.977.682 3.352.693 1.365 1.92 2.08 1.227.705 2.852.705 1.057 0 1.91-.296a4.1 4.1 0 0 0 1.488-.909q.626-.614.966-1.523l2.591.728a5.75 5.75 0 0 1-1.375 2.318q-.966.989-2.386 1.545-1.42.546-3.194.546m21.398-11.591v-2.455h14v2.455zm0 6.727v-2.455h14V53.5zM173.178 31V7.727h2.818v10.364h12.409V7.727h2.818V31h-2.818V20.59h-12.409V31zm23.323 0V13.546h2.682V31zm1.364-20.364q-.784 0-1.352-.534a1.72 1.72 0 0 1-.557-1.284q0-.75.557-1.284A1.9 1.9 0 0 1 197.865 7q.784 0 1.341.534.568.534.568 1.284t-.568 1.284a1.87 1.87 0 0 1-1.341.534m13.276 27.273q-1.943 0-3.341-.5-1.398-.49-2.33-1.295a7.1 7.1 0 0 1-1.466-1.705l2.137-1.5q.363.477.92 1.091.557.625 1.523 1.08.977.465 2.557.465 2.114 0 3.488-1.022t1.375-3.205v-3.545h-.227q-.295.477-.841 1.181-.534.694-1.545 1.24-1 .533-2.705.533-2.114 0-3.795-1-1.671-1-2.648-2.909-.966-1.91-.966-4.636 0-2.682.943-4.67.944-2 2.625-3.091 1.682-1.103 3.887-1.103 1.704 0 2.704.568 1.01.558 1.546 1.273.544.704.84 1.16h.273v-2.773h2.591V31.5q0 2.25-1.023 3.66-1.011 1.42-2.727 2.079-1.704.67-3.795.67m-.091-9.59q1.613 0 2.727-.74 1.113-.738 1.693-2.125.58-1.386.58-3.318 0-1.886-.568-3.33-.569-1.442-1.682-2.26-1.114-.819-2.75-.819-1.706 0-2.841.864-1.125.863-1.693 2.318-.558 1.455-.557 3.227 0 1.82.568 3.216.58 1.387 1.705 2.182 1.136.784 2.818.784m15.227-7.819V31h-2.682V7.727h2.682v8.546h.227a4.93 4.93 0 0 1 1.841-2.148q1.238-.807 3.296-.807 1.784 0 3.125.716 1.341.705 2.079 2.17.75 1.455.75 3.705V31h-2.682V20.09q0-2.078-1.079-3.215-1.068-1.148-2.966-1.148-1.319 0-2.364.557a4.07 4.07 0 0 0-1.636 1.625q-.591 1.068-.591 2.591m32.043 6.41v-15h2.545v15zm-6.228-6.228v-2.546h15v2.546zM281.959 31V7.727h2.818V28.5h10.818V31zm24.727.364q-2.363 0-4.148-1.125-1.772-1.126-2.772-3.148-.989-2.023-.989-4.727 0-2.728.989-4.762 1-2.034 2.772-3.159 1.784-1.125 4.148-1.125t4.136 1.125q1.785 1.125 2.773 3.16 1 2.033 1 4.76 0 2.706-1 4.728-.988 2.022-2.773 3.148-1.772 1.125-4.136 1.125m0-2.41q1.796 0 2.955-.92 1.158-.92 1.716-2.42.556-1.5.556-3.25t-.556-3.262q-.558-1.511-1.716-2.443-1.16-.932-2.955-.932t-2.954.932q-1.16.932-1.716 2.443-.558 1.512-.557 3.262 0 1.75.557 3.25.556 1.5 1.716 2.42 1.158.92 2.954.92M322.05 31l-5.318-17.454h2.818l3.772 13.363h.182l3.728-13.363h2.863l3.682 13.318h.182l3.773-13.318h2.818L335.232 31h-2.637l-3.818-13.41h-.273L324.686 31zM248.722 86v-2.046l7.681-8.408a54 54 0 0 0 2.228-2.569q.875-1.102 1.295-2.068a5 5 0 0 0 .432-2.045q0-1.228-.591-2.125a3.83 3.83 0 0 0-1.591-1.387q-1.011-.489-2.273-.488-1.34 0-2.341.556a3.84 3.84 0 0 0-1.534 1.534q-.534.99-.534 2.319h-2.682q0-2.045.944-3.591a6.55 6.55 0 0 1 2.568-2.41q1.636-.863 3.67-.863 2.046 0 3.625.864 1.58.863 2.478 2.33.897 1.466.897 3.26 0 1.285-.466 2.512-.455 1.215-1.59 2.716-1.125 1.489-3.126 3.636l-5.227 5.591v.182h10.818V86z"/><path stroke="#fff" d="M166 46.5h180"/><path fill="#fff" d="M15.256 175.727h3.363l7.91 19.318h.272l7.91-19.318h3.363V199h-2.636v-17.682h-.228L27.937 199h-2.545l-7.273-17.682h-.227V199h-2.636zM43.36 199v-17.455h2.682V199zm1.363-20.364q-.783 0-1.352-.534a1.72 1.72 0 0 1-.557-1.284q0-.75.557-1.284.569-.534 1.352-.534.785 0 1.341.534.57.534.569 1.284 0 .75-.569 1.284a1.87 1.87 0 0 1-1.34.534m12.822 20.728q-2.183 0-3.853-1.103-1.67-1.113-2.613-3.136-.945-2.034-.944-4.807 0-2.75.944-4.773.942-2.022 2.625-3.125 1.68-1.101 3.886-1.102 1.704 0 2.693.568 1 .558 1.523 1.273.533.705.83 1.159h.227v-8.591h2.682V199h-2.592v-2.682h-.318q-.296.477-.84 1.205-.546.715-1.557 1.284-1.012.557-2.693.557m.363-2.409q1.614 0 2.727-.841 1.114-.853 1.694-2.353.58-1.51.58-3.488 0-1.954-.57-3.421-.568-1.477-1.68-2.295-1.115-.83-2.75-.83-1.705 0-2.842.875-1.125.864-1.693 2.353-.557 1.476-.557 3.318 0 1.863.568 3.386.58 1.512 1.705 2.409 1.137.887 2.818.887m19.512 2.409q-2.183 0-3.853-1.103-1.67-1.113-2.614-3.136-.943-2.034-.943-4.807 0-2.75.944-4.773.942-2.022 2.624-3.125 1.683-1.101 3.887-1.102 1.704 0 2.693.568 1 .558 1.523 1.273.533.705.83 1.159h.227v-8.591h2.682V199h-2.592v-2.682h-.318q-.296.477-.84 1.205-.546.715-1.557 1.284-1.012.557-2.693.557m.363-2.409q1.614 0 2.727-.841 1.114-.853 1.694-2.353.58-1.51.58-3.488 0-1.954-.57-3.421-.568-1.477-1.68-2.295-1.115-.83-2.75-.83-1.705 0-2.842.875-1.125.864-1.693 2.353-.557 1.476-.557 3.318 0 1.863.568 3.386.58 1.512 1.705 2.409 1.137.887 2.818.887m15.602-21.228V199h-2.681v-23.273zm12.23 23.637q-2.522 0-4.352-1.114-1.818-1.125-2.807-3.136-.977-2.023-.977-4.705t.977-4.727q.99-2.057 2.75-3.205 1.773-1.158 4.137-1.159 1.364 0 2.693.455a6.7 6.7 0 0 1 2.42 1.477q1.091 1.011 1.739 2.682.648 1.67.648 4.113v1.137H99.389v-2.318h10.727q0-1.478-.59-2.637a4.46 4.46 0 0 0-1.66-1.829q-1.068-.67-2.522-.671-1.602 0-2.773.796a5.2 5.2 0 0 0-1.784 2.045 6 6 0 0 0-.625 2.705v1.545q0 1.978.682 3.352.693 1.365 1.92 2.08 1.227.705 2.852.705 1.057 0 1.91-.296a4.1 4.1 0 0 0 1.488-.909q.626-.614.966-1.523l2.591.728a5.75 5.75 0 0 1-1.375 2.318q-.966.988-2.386 1.545-1.42.546-3.194.546m21.398-11.591v-2.455h14v2.455zm0 6.727v-2.455h14v2.455zM223.011 172l10.409-20.591v-.182h-12v-2.5h14.91v2.637L225.966 172zm33.418-4.091v-15h2.545v15zm-6.227-6.227v-2.546h15v2.546zm37.639-12.955V172h-2.818v-20.318h-.137l-5.681 3.773v-2.864l5.818-3.864zM248.722 227v-2.045l7.681-8.41a53 53 0 0 0 2.228-2.568q.875-1.102 1.295-2.068a5 5 0 0 0 .432-2.045q0-1.228-.591-2.125a3.83 3.83 0 0 0-1.591-1.387q-1.011-.488-2.273-.488-1.34 0-2.341.556a3.84 3.84 0 0 0-1.534 1.535q-.534.988-.534 2.318h-2.682q0-2.046.944-3.591a6.55 6.55 0 0 1 2.568-2.409q1.636-.864 3.67-.864 2.046 0 3.625.864 1.58.863 2.478 2.329.897 1.467.897 3.262a7 7 0 0 1-.466 2.511q-.455 1.216-1.59 2.716-1.125 1.488-3.126 3.636l-5.227 5.591v.182h10.818v2.5z"/><path stroke="#fff" d="M166 187.5h180"/><path fill="#fff" d="M368.733 186.227v-2.454h14v2.454zm0 6.728V190.5h14v2.455zm37.412 2.272v-2.318l10.227-16.182h1.682v3.591h-1.136l-7.728 12.227v.182h13.773v2.5zM417.099 200v-23.273h2.682V200z"/></svg>
